icons/rss3-node.svg

<svg width="114" height="121" viewBox="0 0 114 121" fill="none" xmlns="http://www.w3.org/2000/svg">
<g clip-path="url(#clip0_4911_43)">
<path d="M108.71 0.31543H4.68517C2.12418 0.31543 0.0463867 2.52308 0.0463867 5.24414V115.77C0.0463867 118.492 2.12418 120.699 4.68517 120.699H108.71C111.271 120.699 113.349 118.492 113.349 115.77V5.24414C113.349 2.52308 111.271 0.31543 108.71 0.31543ZM89.0531 87.5844C89.0531 91.6198 85.9799 94.885 82.1819 94.885H31.2229C27.4249 94.885 24.3517 91.6198 24.3517 87.5844V33.4405C24.3517 29.4051 27.4249 26.1398 31.2229 26.1398H82.1819C85.9799 26.1398 89.0531 29.4051 89.0531 33.4405V87.5844Z" fill="#1477FB"/>
<path d="M66.5152 47.272H46.8874C45.4249 47.272 44.2394 48.5316 44.2394 50.0854V70.94C44.2394 72.4939 45.4249 73.7535 46.8874 73.7535H66.5152C67.9777 73.7535 69.1632 72.4939 69.1632 70.94V50.0854C69.1632 48.5316 67.9777 47.272 66.5152 47.272Z" fill="#1477FB"/>
</g>
<defs>
<clipPath id="clip0_4911_43">
<rect width="113.302" height="120.384" fill="white" transform="translate(0.046875 0.31543)"/>
</clipPath>
</defs>
</svg>

<svg xmlns="http://www.w3.org/2000/svg" fill="none" viewBox="0 0 114 121">
  <g fill="#1477FB" clip-path="url(#rss3-node_svg__a)">
    <path d="M108.71.315H4.685C2.125.315.046 2.523.046 5.245V115.77c0 2.722 2.078 4.929 4.64 4.929H108.71c2.561 0 4.639-2.207 4.639-4.929V5.244c0-2.72-2.078-4.929-4.639-4.929m-19.657 87.27c0 4.035-3.073 7.3-6.871 7.3h-50.96c-3.797 0-6.87-3.265-6.87-7.3V33.44c0-4.036 3.073-7.301 6.87-7.301h50.96c3.798 0 6.871 3.265 6.871 7.3z"/>
    <path d="M66.515 47.272H46.887c-1.462 0-2.648 1.26-2.648 2.813V70.94c0 1.554 1.186 2.814 2.648 2.814h19.628c1.463 0 2.648-1.26 2.648-2.814V50.085c0-1.553-1.185-2.813-2.648-2.813"/>
  </g>
  <defs>
    <clipPath id="rss3-node_svg__a">
      <path fill="#fff" d="M.047.315h113.302V120.7H.047z"/>
    </clipPath>
  </defs>
</svg>
